X: 11041
T: The BONNIE HAWTHORN THAT BLOOMS IN THE VALE
Q: "Moderate."
%R: air, march, reel
B: W. Hamilton "Universal Tune-Book" Vol. 1 Glasgow 1844 p.104 #1
S: http://imslp.org/wiki/Hamilton's_Universal_Tune-Book_(Various)
Z: 2016 John Chambers <jc:trillian.mit.edu>
M: C
L: 1/8
K: D
%%slurgraces yes
%%graceslurs yes
% - - - - - - - - - - - - - - - - - - - - - - - - -
D |\
F>GAB {B}A2de | (f>d){d}cB A2zB/c/ |\
d>efa d2Ad | (BA)GF {F}E2zD/E/ |\
F>GAB (A2d)e | fdAf Hg2(fg) |
a<f{f}ed {c}B2Ad | F2{F}ED D2zD |\
(F<A)AB (AB)de | fdAf Hg2fg |\
a>f{f}ed {c}B2Ad | {G}F2ED D2z |]
% - - - - - - - - - - - - - - - - - - - - - - - - -

%%sep 1 1 500
%%sep 1 1 500

